X:7015
T:Gloucester Hornpipe
R:Hornpipe
C:Trad.
O:England; Gloucestershire
Z:Paul Hardy's Session Tunebook 2022 (see www.paulhardy.net). Creative Commons cc by-nc-sa licenced.
M:4/4
L:1/8
Q:1/4=140
K:G
(3DEF|"G"G2g2g2 dB|"C"cBcd efge|"G"dBGB "Em"edcB|"Am"ABcA "D7"GFED|
"G"G2g2g2 dB|"C"cBcd efge|"G"dBGB "D"ecAF|"G"G2B2G2:|
|:GA|"G"B2 BA BcdB|"C"e2 ed efge|"G"dBGB "Em"edcB|"Am"ABcA "D7"GFED|
"G"B2 BA BcdB|"C"e2 ed efge|"G"dBGB "D"ecAF|"G"G2B2G2:|

